!!!!SEGMENT: pl-wtm--r-1227--026_lodwigowski-edward-stefan--tempo-di-mazur.krn
!!!cenid: 18xx:1966
!!!COM: Łodwigowski, Edward Stefan
!!!COM-rismid: pe30111147
!!!CDT: 1815/08/14-1895/11/12
!!!CNT: Polish
!!!OTL: Tempo di Mazur
!!!PDT:
!!!AGN: Secular; Mazurka
!!!SMS-siglum: PL-Wtm
!!!SMS-shelfmark: R 1227
!!!SMS-shelfwork: 026 W
!!!SMS-variant:
!!!SMS-altvar:
!!!NIFC-rismid: 1001084176
!!!URL-scan: http://repozytorium.nifc.pl/skany/pl-wtm-nut--r1226-1227
!!!ONB-nifc: UWAGA: No. 97
!!!OMD: No 97. Tempo di Mazur.
**kern	**fing	**kern	**fing	**dynam
*part1	*	*part1	*	*part1
*staff2	*	*staff1	*	*
*I"Fortepian	*	*I"Fortepian	*	*
*clefF4	*	*clefG2	*	*
*k[]	*	*k[]	*	*
*M3/4	*	*M3/4	*	*
=1	=1	=1	=1	=1
*^	*	*	*	*
*	*2\right	*below	*	*	*
!	!	!	!	!	!LO:DY:t=f.
4r	2.C\	5	8ee\L	2	f
.	.	.	16r	.	.
.	.	.	(16ee\Jk	1	.
4G 4E/	.	.	8ff\L	.	<
.	.	.	8gg\	.	.
4F 4D/	.	.	8aa\	1	.
.	.	.	8bb\J	.	[[
=2	=2	=2	=2	=2	=2
*	*	*	*2\right	*	*
4r	2.C\	.	2ccc\	.	.
4G 4E/	.	.	.	.	.
4G 4E/	.	.	4ddd\	.	.
=3	=3	=3	=3	=3	=3
4r	2.C\	.	4.eee\)	.	.
4G 4E/	.	.	.	.	.
.	.	.	16qqeee/LL	4	.
.	.	.	16qqfff/JJ	.	.
.	.	.	(8eee\L	.	.
4G 4E/	.	.	8ddd\	.	.
.	.	.	8ccc\J	.	.
=4	=4	=4	=4	=4	=4
4r	2.BB\	.	4ddd\	.	.
4G 4F/	.	.	4gg\)	.	.
4G 4F/	.	.	4r	.	.
!!LO:LB:g=original
=5	=5	=5	=5	=5	=5
4r	2.GG\	.	8.ddd\L	5	mf
.	.	.	16gg\Jk	1	.
4F 4D 4BB/	.	.	(4aa\	2	.
4F 4D 4BB/	.	.	4gg\)	.	.
=6	=6	=6	=6	=6	=6
4r	2.C\	.	8.ccc\L	4	.
.	.	.	16gg\Jk	.	.
4G 4E/	.	.	(4.aa\	.	.
4G 4E/	.	.	.	.	.
.	.	.	8gg\)	.	.
=7	=7	=7	=7	=7	=7
4r	2.D\	.	(4.ff#X\	2	.
4c 4A 4F#X/	.	.	.	.	.
.	.	.	8eee\L	5	.
4c 4A 4F#/	.	.	8ddd\	.	.
.	.	.	8ccc\J)	.	.
=8	=8	=8	=8	=8	=8
4r	2.G\	.	(2bb\	.	.
4d 4B/	.	.	.	.	.
4d 4B/	.	.	4gg\)	.	.
=9	=9	=9	=9	=9	=9
4r	2.C#X\	.	8.aa\L	5	p
.	.	.	16ee\Jk	2	.
4A 4G 4E/	.	.	(4ff\	.	.
4A 4G 4E/	.	.	4ee\)	.	.
!!LO:LB:g=original
=10	=10	=10	=10	=10	=10
4r	2.D\	.	(8.dd\L	.	.
.	.	.	16ee\Jk	.	.
4A 4F/	.	.	4ff\	.	.
4A 4F/	.	.	4aa\)	.	.
=11	=11	=11	=11	=11	=11
4r	2.AA\	.	(8.gg\L	4	.
.	.	.	16aa\Jk	1	<
4G 4E/	.	.	4bb\	.	.
4G 4E/	.	.	4ccc#X\	.	[[
=12	=12	=12	=12	=12	=12
4r	2.D\	.	4eee\	.	>
4A 4F/	.	.	4ddd\)	.	]
4A 4F/	.	.	4r	.	.
=13	=13	=13	=13	=13	=13
4r	2.BB\	.	8.ddd\L	5	.
.	.	.	16gg\Jk	1	.
4G 4F 4D/	.	.	(4.aa\	2	.
4G 4F 4D/	.	.	.	.	.
.	.	.	8gg\)	1	.
=14	=14	=14	=14	=14	=14
!	!	!	!LO:TUP:b:problem:klamra łukowa	!	!
4r	2.C\	.	12ee\L	2	.
.	.	.	12gg\	1	.
.	.	.	12ccc\J	2	.
4G 4E/	.	.	(4.eee\	4	.
4G 4E/	.	.	.	.	.
.	.	.	8fff\)	.	.
=15	=15	=15	=15	=15	=15
4r	2.GG\	.	(8.eee\L	.	.
.	.	.	16ddd\Jk	.	.
4F 4D/	.	.	4aa\	.	.
4F 4D/	.	.	4bb\	.	.
=16	=16	=16	=16	=16	=16
4r	2.C\	.	4ddd\	.	.
4G 4E/	.	.	4ccc\)	.	.
4G 4E/	.	.	4r	.	.
=17	=17	=17	=17	=17	=17
4r	2.D\	.	(8ddd\L	5	.
.	.	.	16r	.	.
.	.	.	16aa\Jk	3	.
4c 4A 4F#X/	.	.	4.bb\	4	.
4c 4A 4F#/	.	.	.	.	.
.	.	.	8aa\	3	.
=18	=18	=18	=18	=18	=18
4r	2.G\	.	8.ee\L	1	.
.	.	.	16ff#X\Jk	.	.
4d 4B/	.	.	4dd\	.	.
4d 4B/	.	.	4gg\	3	.
=19	=19	=19	=19	=19	=19
!	!	!	!LO:TUP:b:problem:klamra łukowa	!	!
4r	2.D\	.	12ff#X\L	2	.
.	.	.	12aa\	1	.
.	.	.	12ccc\J	3	.
4c 4A 4F#X/	.	.	4eee\)|	.	.
4c 4A 4F#/	.	.	8r	.	.
.	.	.	8eee 8ccc'\	.	.
=20	=20	=20	=20	=20	=20
4r	2.G\	.	(4eee 4ccc\	.	.
4d 4B/	.	.	4ddd 4bb'\)	.	.
4d 4B/	.	.	4r	.	.
!!LO:LB:g=original
=21	=21	=21	=21	=21	=21
4r	2.C\	.	(8.ccc\L	5	.
.	.	.	16ee\Jk	1	.
4A 4E/	.	.	4.ff#X\	3	.
4A 4E/	.	.	.	.	.
.	.	.	8ee\	.	.
=22	=22	=22	=22	=22	=22
!	!	!	!LO:TUP:b:problem:klamra łukowa	!	!
4r	2.D\	.	12dd\L	1	.
.	.	.	12ff\	2	.
.	.	.	12bb\J	4	.
4B 4G/	.	.	4.ddd\	.	.
4B 4G/	.	.	.	.	.
.	.	.	8ccc\	.	.
=23	=23	=23	=23	=23	=23
4r	2.D\	.	8.bb\L	.	.
.	.	.	16aa\Jk	.	.
4c 4A/	.	.	4ee\	.	.
4c 4A/	.	.	4ff#X\	.	.
=24	=24	=24	=24	=24	=24
4r	2.G\	.	4aa\	.	.
4d 4B/	.	.	4gg'\)	.	.
4d 4B/	.	.	4r	.	.
=25	=25	=25	=25	=25	=25
4r	2.BB\	.	8.ddd\L	5	.
.	.	.	16gg\Jk	.	.
.	.	.	(8qbb/	3	.
4G 4F 4D/	.	.	(4.aa\)	.	.
4G 4F 4D/	.	.	.	.	.
.	.	.	8gg\)	.	.
=26	=26	=26	=26	=26	=26
!	!	!	!LO:TUP:b:problem:klamra łukowa	!	!
4r	2.C\	.	12ee\L	2	.
.	.	.	12gg\	1	.
.	.	.	12ccc\J	2	.
4G 4E/	.	.	(4.eee\	4	.
4G 4E/	.	.	.	.	.
.	.	.	8fff\)	.	.
!!LO:LB:g=original
=27	=27	=27	=27	=27	=27
4r	2.GG\	.	(8.eee\L	.	.
.	.	.	16ddd\Jk	.	.
4F 4D/	.	.	4aa\	1	.
4F 4D/	.	.	4bb\	2	.
=28	=28	=28	=28	=28	=28
4r	2.C\	.	8.ddd\L	4	.
.	.	.	16ccc\Jk	.	.
4F#X 4D#X/	.	.	4aa\	.	.
4G 4E/	.	.	4gg\	.	.
=29	=29	=29	=29	=29	=29
4r	2.BB\	.	8gg\L)	2	.
.	.	.	16r	.	.
.	.	.	16gg\Jk	1	.
!	!	!	!	!	!LO:HP:t=cres
.	.	.	(8qbb/	3	<
4G 4F 4D/	.	.	(4.aa\)	.	.
4G 4F 4D/	.	.	.	.	.
.	.	.	8gg\)	.	.
=30	=30	=30	=30	=30	=30
*	*	*	*Xtuplet	*	*
4r	2.C\	.	12ee\L	2	.
.	.	.	12gg\	1	.
.	.	.	12ccc\J	2	.
4G 4E/	.	.	(4.eee\	4	.
4G 4E/	.	.	.	.	.
.	.	.	8fff\)	.	.
=31	=31	=31	=31	=31	=31
4r	2.GG\	.	(8.eee\L	.	f
.	.	.	16ddd\Jk	.	.
4F 4D/	.	.	4aa\	.	.
4F 4D/	.	.	4bb\	.	.
=32	=32	=32	=32	=32	=32
4F/	4C\	.	4ddd\	.	.
4E'/	4C\	.	4ccc'\)	.	.
!	!	!	!LO:TX:b:t=Koniec	!	!
4r	4ryy	.	4r	.	.
*v	*v	*	*	*	*
==	==	==	==	==
*-	*-	*-	*-	*-
!!!system-decoration: {s1,s2}
!!!RDF**kern: | = vertical stroke
!!!ENC: Marta Lawrence
!!!ENC: 2021-05-02
!!!ENC: Andrzej Kubiczek
!!!END: 2021-04-18
